X:52
T:Come, Your Heart and Voices Raising
%%stretchlast false
M:3/4
L:1/4
K:Eb clef=C1
"^I"[EGe]2 [EBeg] | "^V¹"[DBfb]2 "^I"[EBeg] | "^IV¹"[CAea] [CAeb] "^IV"[A,Aec'] | "^i"[B,Feb] "^I²"[B,Geb] "^V7"[B,Adf] | "^I"[EGeg] [EGea] "^I¹"[Geb] | "^ii"[FAca] [FAcg] "^V7"[B,Adf] | "^vi"[CGce]2 "^V/V"[F=Ac] | "^V"[B,FBd]2 [B,DB] | "^I"[EBg]2 "^IV¹"[CEea] | "^I¹"[G,Eeb]2 "^IV"[A,Aec'] | "^i"[B,Feb] "^I²"[B,Geb] "^V7"[B,Adf] | "^V/vi¹"[=B,Gdg]2 "^vi"[CGce] | "^ii"[FAca]2 [F,cfa] | "^iii"[GBdg] "^iii7"[GBdf] "^vi"[CGce] | "^ii7"[F,Ace] "^ii"[F,Ac] "^♯iii°"[B,ABd] | "^I"[EGBe]3 |]
